Newaita/actions/32/format-text-italic.svg

<svg height="32" viewBox="0 0 32 32" width="32" xmlns="http://www.w3.org/2000/svg"><path d="m18.523438 5.871094c-2.949219 0-5.824219 1.195312-7.65625 2.976562l1.839843 1.375c1.101563-1.015625 2.890625-1.703125 4.746094-1.703125h.761719c2.722656 0 4.527344 1.476563 4.050781 3.308594l-1.035156 3.96875c-1.15625-.941406-2.863281-1.511719-4.898438-1.511719-4.398437 0-8.628906 2.65625-9.488281 5.957032l-.171875.660156h.046875c-.339844 2.984375 2.414062 5.292968 6.511719 5.292968 2.035156 0 4.039062-.570312 5.683593-1.511718l-.355468 1.367187h2.648437l1.339844-5.148437.125-.476563.046875-.183593 2.191406-8.414063c.859375-3.300781-1.988281-5.957031-6.386718-5.957031zm-3.261719 11.0625h.761719c2.722656 0 4.527343 1.472656 4.050781 3.308594-.476563 1.832031-3.050781 3.304687-5.773438 3.304687h-.761719c-2.722656 0-4.527343-1.472656-4.050781-3.304687.476563-1.835938 3.050781-3.308594 5.773438-3.308594zm0 0" fill="#424242"/></svg>

<svg xmlns="http://www.w3.org/2000/svg" xmlns:xlink="http://www.w3.org/1999/xlink" width="32px" height="32px" viewBox="0 0 32 32" version="1.1">
<g id="surface1">
     <defs>
  <style id="current-color-scheme" type="text/css">
   .ColorScheme-Text { color:#424242; } .ColorScheme-Highlight { color:#eeeeee; }
  </style>
 </defs>
<path style="fill:currentColor" class="ColorScheme-Text" d="M 18.523438 5.871094 C 15.574219 5.871094 12.699219 7.066406 10.867188 8.847656 L 12.707031 10.222656 C 13.808594 9.207031 15.597656 8.519531 17.453125 8.519531 L 18.214844 8.519531 C 20.9375 8.519531 22.742188 9.996094 22.265625 11.828125 L 21.230469 15.796875 C 20.074219 14.855469 18.367188 14.285156 16.332031 14.285156 C 11.933594 14.285156 7.703125 16.941406 6.84375 20.242188 L 6.671875 20.902344 L 6.71875 20.902344 C 6.378906 23.886719 9.132812 26.195312 13.230469 26.195312 C 15.265625 26.195312 17.269531 25.625 18.914062 24.683594 L 18.558594 26.050781 L 21.207031 26.050781 L 22.546875 20.902344 L 22.671875 20.425781 L 22.71875 20.242188 L 24.910156 11.828125 C 25.769531 8.527344 22.921875 5.871094 18.523438 5.871094 Z M 15.261719 16.933594 L 16.023438 16.933594 C 18.746094 16.933594 20.550781 18.40625 20.074219 20.242188 C 19.597656 22.074219 17.023438 23.546875 14.300781 23.546875 L 13.539062 23.546875 C 10.816406 23.546875 9.011719 22.074219 9.488281 20.242188 C 9.964844 18.40625 12.539062 16.933594 15.261719 16.933594 Z M 15.261719 16.933594 "/>
</g>
</svg>
